public/icons/fb-new.svg

<svg width="25" height="25" viewBox="0 0 25 25" fill="none" xmlns="http://www.w3.org/2000/svg">
<g clip-path="url(#clip0)">
<path d="M25 12.5C25 19.4036 19.4036 25 12.5 25C5.59635 25 0 19.4036 0 12.5C0 5.59635 5.59635 0 12.5 0C19.4036 0 25 5.59635 25 12.5Z" fill="#4A7AFF"/>
<path d="M13.0485 24.9871C19.6975 24.7 24.9999 19.2195 24.9999 12.4999C24.9999 12.4512 24.9986 12.4028 24.998 12.3542L16.3213 3.67725L7.04395 13.3742L12.1986 18.5288L9.82181 21.7604L13.0485 24.9871Z" fill="#0053BF"/>
<path d="M16.3215 3.67725V6.50775C16.3215 6.50775 13.0717 6.03606 13.0717 8.13262V10.2292H16.007L15.6402 13.4265H13.0717V21.7604H9.822V13.4265L7.04395 13.374V10.2292H9.76955V7.8181C9.76955 7.8181 9.58968 4.23133 13.1242 3.57253C14.5919 3.29883 16.3215 3.67725 16.3215 3.67725Z" fill="white"/>
<path d="M16.3212 6.50775V3.67725C16.3212 3.67725 14.5916 3.29883 13.1239 3.57253C12.8946 3.61526 12.6814 3.67057 12.4824 3.73599V21.7604H13.0714V13.4265H15.6397L16.0066 10.2292H13.0714C13.0714 10.2292 13.0714 10.2292 13.0714 8.13262C13.0714 6.03606 16.3212 6.50775 16.3212 6.50775Z" fill="#DCE1EB"/>
</g>
<defs>
<clipPath id="clip0">
<rect width="25" height="25" fill="white"/>
</clipPath>
</defs>
</svg>

<svg viewBox="0 0 25 25" fill="none" xmlns="http://www.w3.org/2000/svg"><g clip-path="url(#fb-new_svg__clip0)"><path d="M25 12.5C25 19.404 19.404 25 12.5 25S0 19.404 0 12.5 5.596 0 12.5 0 25 5.596 25 12.5z" fill="#4A7AFF"/><path d="M13.049 24.987c6.649-.287 11.95-5.767 11.95-12.487l-.001-.146-8.677-8.677-9.277 9.697 5.155 5.155-2.377 3.231 3.227 3.227z" fill="#0053BF"/><path d="M16.322 3.677v2.83s-3.25-.47-3.25 1.626v2.096h2.935l-.367 3.198h-2.568v8.333h-3.25v-8.334l-2.778-.052v-3.145H9.77V7.82s-.18-3.588 3.354-4.246c1.468-.274 3.197.104 3.197.104z" fill="#fff"/><path d="M16.321 6.508v-2.83s-1.73-.38-3.197-.105a4.89 4.89 0 00-.642.163V21.76h.59v-8.334h2.568l.367-3.197H13.07V8.133c0-2.097 3.25-1.625 3.25-1.625z" fill="#DCE1EB"/></g><defs><clipPath id="fb-new_svg__clip0"><path fill="#fff" d="M0 0h25v25H0z"/></clipPath></defs></svg>
